X: 3
T: My Tocher's the Jewel
P: piffero primo b0068
O: safd
%R: jig, march
F: http://ancients.sudburymuster.org/mus/ssp/pdf/draft111F.pdf
Z: 2019 John Chambers <jc:trillian.mit.edu>
M: 6/8
L: 1/8
K: D
E2 |\
C<FF F2E | (F<A)B cfe | c<cc (A/B/c)B | (A<E)E E2E |\
C<FF F2E | (F<A)B cfe | c<af e<cB | (A<F)F F2c |
e>fe e<cA | B<ce f2f | ecA A<cB | A<EE E2E |\
F<AE F<AE | FAB c<fe | c<af (e<c)B | (A<F)F F3 |\
z3 z2 |]


